weblate_web/static/img/icon-versioncontrol.svg

<svg xmlns="http://www.w3.org/2000/svg" xmlns:svg="http://www.w3.org/2000/svg" id="svg4" width="41" height="41" version="1.1" viewBox="-1 -1 43.001 43.001"><metadata id="metadata10"/><path id="path2" fill="none" stroke="#2eccaa" stroke-opacity="1" stroke-width="1" d="M 1.2229579,17.608755 13.076513,5.7346923 16.542345,9.221032 c -0.492189,1.74317 0.307618,3.650403 1.907233,4.573257 v 11.361366 c -1.230473,0.697268 -2.050788,2.030281 -2.050788,3.547864 a 4.1015762,4.1015762 0 0 0 4.101576,4.101576 4.1015762,4.1015762 0 0 0 4.101576,-4.101576 c 0,-1.517583 -0.820315,-2.850596 -2.050788,-3.547864 v -9.96683 l 4.245132,4.286147 c -0.143556,0.307619 -0.143556,0.656253 -0.143556,1.025394 a 4.1015762,4.1015762 0 0 0 4.101577,4.101577 4.1015762,4.1015762 0 0 0 4.101576,-4.101577 4.1015762,4.1015762 0 0 0 -4.101576,-4.101576 c -0.369142,0 -0.717776,0 -1.025394,0.143555 L 24.458387,11.27182 C 24.991592,9.3645871 24.007214,7.2727833 22.099981,6.4729763 21.218142,6.1448503 20.295287,6.0628183 19.474972,6.2884053 l -3.48634,-3.465832 1.620123,-1.599615 c 1.599615,-1.62012301 4.183608,-1.62012301 5.783222,0 L 39.777774,17.608755 c 1.620123,1.599615 1.620123,4.183608 0,5.783223 L 23.391977,39.777774 c -1.599614,1.620123 -4.183607,1.620123 -5.783222,0 L 1.2229579,23.391978 c -1.62012267,-1.599615 -1.62012267,-4.183608 0,-5.783223 z"/></svg>

<svg width="41" height="41" version="1.1" viewBox="-1 -1 43.001 43.001" xmlns="http://www.w3.org/2000/svg"><path d="m1.223 17.609 11.854-11.874 3.4658 3.4863c-0.49219 1.7432 0.30762 3.6504 1.9072 4.5733v11.361c-1.2305 0.69727-2.0508 2.0303-2.0508 3.5479a4.1016 4.1016 0 0 0 4.1016 4.1016 4.1016 4.1016 0 0 0 4.1016-4.1016c0-1.5176-0.82032-2.8506-2.0508-3.5479v-9.9668l4.2451 4.2861c-0.14356 0.30762-0.14356 0.65625-0.14356 1.0254a4.1016 4.1016 0 0 0 4.1016 4.1016 4.1016 4.1016 0 0 0 4.1016-4.1016 4.1016 4.1016 0 0 0-4.1016-4.1016c-0.36914 0-0.71778 0-1.0254 0.14356l-5.2705-5.2705c0.5332-1.9072-0.45117-3.999-2.3584-4.7988-0.88184-0.32813-1.8047-0.41016-2.625-0.18457l-3.4863-3.4658 1.6201-1.5996c1.5996-1.6201 4.1836-1.6201 5.7832 0l16.386 16.386c1.6201 1.5996 1.6201 4.1836 0 5.7832l-16.386 16.386c-1.5996 1.6201-4.1836 1.6201-5.7832 0l-16.386-16.386c-1.6201-1.5996-1.6201-4.1836 0-5.7832z" fill="none" stroke="#2eccaa"/></svg>
